X:1
T:Laus Regis, 66.66.88
T:Laus Regis, 66.66.88
T:William Edward Fischer, 1899
T:Public Domain Courtesy of the Cyber Hymnal™
C:William Edward Fischer, 1899
Z:Public Domain
Z:Courtesy of the Cyber Hymnal™
%%score ( 1 2 ) ( 3 4 )
L:1/8
M:4/4
K:D
V:1 treble 
V:2 treble 
V:3 bass 
V:4 bass 
V:1
 [A,D]4 | [CF]2 D2 [CF]2 [CA]2 | [Dd]4 [DA]4 | [EA]2 [DF]2 [CG]2 [CA]2 | [DF]4 [DF]4 | %5
 [CE]2 [EA]2 [E^G]2 [EB]2 | [EA]2 [Ec]2 [Ee]2 [Fd]2 | c4 z2 x6 | [CA]6 [CA]2 | [Dd]4 [D=c]4 | %10
 [DB]6 [^DB]2 | [Ee]4 [Ed]4 | [Ec]4 [Ec]4 | [Dd]4 [DA]4 | (c2 B2) (A2 G2) | F4 z2 x6 | D4 |] %17
V:2
 x4 | x2 D2 x4 | x8 | x8 | x8 | x8 | x8 | E6 (B4 D2) | x8 | x8 | x8 | x8 | x8 | x8 | D4 D4 | %15
 D6 (E4 C2) | D4 |] %17
V:3
 [D,F,]4 | [A,,A,]2 [B,,F,]2 [D,A,]2 [C,G,]2 | [B,,F,]4 [D,F,]4 | %3
 [C,A,]2 [D,A,]2 [E,A,]2 [A,,A,]2 | [D,A,]4 [D,A,]4 | [E,A,]2 [E,C]2 [E,B,]2 [D,^G,]2 | %6
 [C,A,]2 [A,,A,]2 [C,A,]2 [D,A,]2 | [E,A,]4 [E,^G,]4 x4 | A,6 [G,A,]2 | [F,A,]4 [F,,A,]4 | %10
 [G,,G,]6 [A,B,]2 | [^G,B,]4 [^G,,B,]4 | [A,,A,]4 A,4 | [F,A,]4 [D,F,]4 | G,4 ([F,A,]2 [G,B,]2) | %15
 A,6 z2 G,2 x2 | [D,F,]4 |] %17
V:4
 x4 | x8 | x8 | x8 | x8 | x8 | x8 | x12 | A,6 x2 | x8 | x8 | x8 | x4 (A,2 G,2) | x8 | G,4 x4 | %15
 A,4 A,,4 x4 | x4 |] %17

